svg/m/GB-WLS.svg

<svg width="20" height="15" viewBox="0 0 20 15" fill="none" xmlns="http://www.w3.org/2000/svg">
<g clip-path="url(#clip0_270_61006)">
<rect width="20" height="15" fill="white"/>
<path fill-rule="evenodd" clip-rule="evenodd" d="M0 0V15H20V0H0Z" fill="#5DAA22"/>
<mask id="mask0_270_61006" style="mask-type:luminance" maskUnits="userSpaceOnUse" x="0" y="0" width="20" height="15">
<path fill-rule="evenodd" clip-rule="evenodd" d="M0 0V15H20V0H0Z" fill="white"/>
</mask>
<g mask="url(#mask0_270_61006)">
<path fill-rule="evenodd" clip-rule="evenodd" d="M0 0V7.5H20V0H0Z" fill="#F7FCFF"/>
<path fill-rule="evenodd" clip-rule="evenodd" d="M9.19495 5.60997C9.18389 5.262 9.17324 4.92679 9.60582 4.52672C10.7338 3.5315 11.8813 2.75055 13.1633 2C12.9037 2.45959 12.7178 3.31388 13.3995 3.3681C13.6179 3.37153 16.0146 2.30366 16.0146 2.30366C15.1812 2.94764 14.2224 3.84639 15.3359 4.23523C14.3143 4.57198 13.4672 5.66578 14.2093 6.54679C13.6792 6.38696 12.9834 6.74919 12.8581 7.15736C12.9887 7.15633 13.2192 7.17652 13.5013 7.20123C14.5224 7.29064 16.2198 7.43928 16.3052 6.85613C15.7553 7.14058 14.8019 7.02457 14.773 6.20823C14.7804 5.50818 15.7737 5.11455 16.6196 5.63907C16.6631 5.54479 16.7059 5.45037 16.7488 5.35595C16.7922 5.26028 16.8356 5.16461 16.8796 5.06909C16.8422 5.07398 16.8052 5.07911 16.7686 5.08418C16.5019 5.12112 16.2516 5.1558 15.9701 5.08613C16.6212 4.43209 17.2337 3.78827 17.7883 3.06281C17.6663 3.96749 17.788 5.27785 18 5.70645C17.7427 5.60858 17.456 5.37838 17.3144 5.07639C17.2643 5.24134 17.2142 5.4063 17.1641 5.57127C17.114 5.73623 17.064 5.90119 17.0138 6.06614C17.4988 7.10882 16.9797 8.6553 16.7058 9.47123C16.6205 9.72532 16.559 9.90856 16.559 9.98368C16.3362 10.0724 16.1732 9.9343 16.0103 9.79622C15.9288 9.72719 15.8473 9.65816 15.7584 9.6175C15.8984 10.003 15.799 10.613 15.7121 11.1462C15.6795 11.3464 15.6486 11.5358 15.6328 11.6985C15.61 11.9337 15.7082 12.099 15.7557 12.1791C15.7666 12.1974 15.7749 12.2113 15.7784 12.2205C15.9107 12.2748 16.2179 12.4243 16.2393 12.4446C16.2393 12.4446 16.6196 12.4649 16.5951 12.8717C16.4092 12.6327 16.1557 12.7085 16.1557 12.7085C16.1237 12.7311 15.8359 12.6346 15.8359 12.6346C15.6919 12.5334 15.2818 12.4469 14.8558 12.4649C14.5781 12.4767 14.2427 12.5674 14.181 12.5841C14.1747 12.5858 14.1713 12.5867 14.171 12.5867C14.1646 12.5867 13.819 12.8311 13.819 12.8311C13.819 12.8311 13.7357 12.8108 13.7293 12.8108L13.7287 12.8108C13.715 12.8107 13.4996 12.8084 13.217 13C13.2565 12.7845 13.4036 12.6046 13.5951 12.499C13.7285 12.4256 13.8867 12.3903 13.9863 12.3681C14.0188 12.3608 14.045 12.355 14.0621 12.3497C13.9467 12.3087 13.7284 12.2502 13.5744 12.2652C13.5342 12.2691 13.4804 12.2703 13.4197 12.2717C13.2018 12.2765 12.895 12.2833 12.8136 12.4243C12.8079 12.2595 12.9753 12.0723 13.1633 11.9835C13.2573 11.939 13.3599 11.9258 13.4304 11.9168C13.4778 11.9107 13.5107 11.9064 13.5166 11.8958C13.5547 11.8268 13.4284 11.7168 13.3888 11.6823C13.3816 11.6761 13.3773 11.6723 13.3773 11.6717C13.3773 11.6649 13.1407 11.5135 12.9739 11.6855C13.0063 11.3258 13.5418 11.3208 13.5951 11.3737C13.6474 11.4279 13.6996 11.482 13.7519 11.5361C13.8042 11.5902 13.8565 11.6442 13.9087 11.6985C13.957 11.7307 14.0053 11.7631 14.0536 11.7955C14.1034 11.829 14.1533 11.8625 14.2032 11.8958C14.3653 11.9715 14.7843 11.9105 14.9959 11.6717C15.1198 11.5318 15.1225 11.27 15.1238 11.1375C15.1241 11.1149 15.1243 11.0961 15.125 11.0822C15.1271 11.0432 15.1308 10.9922 15.1352 10.9332C15.1557 10.6527 15.1895 10.1909 15.125 9.96664C15.096 9.86592 14.8576 9.87827 14.5509 9.89414C14.2428 9.9101 13.8657 9.92962 13.5629 9.84161C13.085 9.70273 12.6032 9.42464 12.3112 9.25608C12.1641 9.17116 12.0651 9.11404 12.0391 9.11654C12.0214 9.14747 11.9832 9.17793 11.9389 9.21324C11.8677 9.27003 11.7808 9.33937 11.7377 9.44337C11.6306 9.70252 11.6513 10.0706 11.7377 10.1672C11.7377 10.1672 12.4903 10.1732 12.6586 10.2662C13.08 10.499 13.0542 10.8468 13.041 11.0249C13.0394 11.0467 13.038 11.066 13.0376 11.0822C12.8703 11.0291 12.5746 10.9174 12.4121 10.856C12.3867 10.8464 12.3645 10.8381 12.3466 10.8313C11.9333 11.5373 11.3461 12.0319 10.5084 12.2611C10.601 12.3073 10.7858 12.3494 10.9363 12.3836C11.046 12.4086 11.1375 12.4294 11.1618 12.4446C11.4109 12.5001 11.5864 12.5832 11.5844 12.8311C11.4177 12.6345 11.2555 12.6394 11.1235 12.7361C10.9465 12.8147 10.8197 12.7262 10.6929 12.6377C10.6294 12.5935 10.5659 12.5492 10.4962 12.5258C10.3189 12.3906 9.61485 12.4737 9.41411 12.499C9.16398 12.5254 8.87917 12.5926 8.7546 12.7426C8.69094 12.7958 8.65662 12.7466 8.64138 12.7247C8.63693 12.7183 8.63411 12.7143 8.63266 12.7158C8.34483 12.6172 8.21703 12.8847 8.21703 12.8847C8.14881 12.575 8.29632 12.5088 8.45323 12.4649L8.13342 12.2685C8.1268 12.2298 7.9134 12.1873 7.77455 12.322C7.78736 12.0396 8.11696 11.8632 8.25536 11.9567C8.35514 11.8786 8.53664 11.8644 8.67102 11.9835C8.82218 12.1045 9.05129 12.1205 9.20245 12.072C9.1372 11.8809 8.92933 11.7679 8.81212 11.7602C8.77663 11.751 8.73906 11.7187 8.696 11.6816C8.65062 11.6425 8.59913 11.5982 8.53754 11.5702C8.38544 11.5011 8.19208 11.4998 8.10123 11.5702C8.15944 11.2207 8.81212 11.1228 9.07438 11.5296C9.23168 11.7001 9.47575 11.7881 9.67639 11.8211C10.0448 11.7769 10.4171 11.4696 10.6528 11.275C10.7421 11.2013 10.8118 11.1438 10.8543 11.1228C10.8543 11.1228 10.1844 10.4384 9.67639 10.0852C9.20221 9.75546 7.84467 10.3958 7.66098 10.4824C7.6479 10.4886 7.64077 10.492 7.64034 10.492C7.6079 10.7991 7.37683 11.0822 7.37683 11.0822C7.3394 10.9826 7.29149 10.8905 7.24496 10.8011C7.15336 10.6251 7.0671 10.4594 7.07669 10.2662C6.82881 10.6073 6.64933 10.7898 6.47029 10.9717C6.37881 11.0647 6.28744 11.1576 6.18712 11.2714C5.9468 11.5329 5.82373 11.8405 5.73926 12.18C5.91843 12.2887 6.41794 12.3837 6.41794 12.3837C6.63647 12.3883 6.79737 12.516 6.79524 12.7564C6.60032 12.5432 6.40491 12.6752 6.40491 12.6752C6.24493 12.8159 6.04162 12.7524 5.84739 12.6752C5.67894 12.4849 4.86456 12.426 4.47777 12.6549C4.20238 12.9202 3.81951 12.9444 3.71548 12.7832C3.71548 12.7832 3.54294 12.7767 3.24157 12.8847C3.3187 12.3903 3.6066 12.5258 3.6066 12.5258C3.60448 12.4999 3.60554 12.4824 3.60661 12.465C3.60767 12.4475 3.60874 12.43 3.6066 12.404L3.49769 12.3634C3.30344 12.2727 3.06255 12.295 2.95399 12.3902C3.02822 12.0663 3.31242 12.0643 3.52378 12.0987C3.55158 12.0661 3.57015 12.0076 3.58723 11.9537C3.59376 11.9332 3.60007 11.9133 3.6066 11.8958C3.59664 11.8852 3.58657 11.8743 3.57639 11.8633C3.46661 11.7443 3.34405 11.6115 3.20917 11.7298C3.33839 11.1747 3.98015 11.5997 4.20309 11.7474C4.22392 11.7612 4.24108 11.7725 4.25384 11.7805C4.70861 11.9421 5.89306 10.0955 5.95092 9.96664C5.6136 9.95061 5.23531 9.98779 4.97087 10.0852C4.89591 10.3276 4.7627 10.455 4.60625 10.6046C4.58036 10.6293 4.55384 10.6547 4.52685 10.6813C4.53092 9.98399 4.21916 9.63211 3.77199 9.12738C3.74718 9.09937 3.72194 9.07089 3.69632 9.04185C3.1373 8.6541 2.89004 7.87285 2.84508 7.61774C2.75946 7.85574 2.69623 7.92803 2.6775 7.94945C2.67374 7.95374 2.67178 7.95598 2.67178 7.95711C2.54751 8.09996 2.16703 8.06069 2.25264 8.00429C2.30585 7.9934 2.55674 7.59742 2.55674 7.59742L2.66564 6.53381C2.59984 6.50487 2.57047 6.4018 2.53137 6.26463C2.50679 6.17838 2.47837 6.07864 2.43463 5.97537C2.31511 5.69317 2.09329 5.38715 2 5.36058C2.1771 5.32806 2.41031 5.325 2.55674 5.50037C2.68509 5.65409 2.7705 5.89766 2.83796 6.09004C2.87662 6.20029 2.90938 6.29372 2.94096 6.3438C2.82734 5.95496 2.88498 5.69302 2.99845 5.35408C2.99848 5.33826 2.99864 5.32303 2.99879 5.30834C3.00039 5.15299 3.00137 5.058 2.84508 4.96111C3.15819 4.95325 3.24128 5.19459 3.26602 5.26643C3.26971 5.27717 3.2721 5.28412 3.27377 5.28588C3.41033 5.4741 3.35391 5.62792 3.30869 5.75123C3.27871 5.83296 3.25365 5.90129 3.29293 5.95735C3.31639 5.93854 3.33609 5.91164 3.35581 5.88473C3.39528 5.83084 3.4348 5.77688 3.50461 5.78764C3.59222 5.68616 3.65848 5.5761 3.65185 5.34759C3.87237 5.48077 3.81855 5.67667 3.74771 5.86883C3.76083 6.15632 3.72265 6.23502 3.54294 6.3365C3.36297 6.44991 3.32903 6.54402 3.35045 6.6824C3.3889 6.7259 3.41517 6.8181 3.44904 6.93697C3.50289 7.12597 3.57595 7.3824 3.74771 7.61774C4.00146 7.96543 4.40765 8.2838 4.61721 8.44806C4.6837 8.50018 4.7304 8.53678 4.74616 8.55388C4.77261 8.51142 4.88058 8.42225 4.9831 8.33759C5.04486 8.28659 5.10463 8.23722 5.14341 8.20069C5.01655 8.09649 5.10271 7.15757 5.35925 6.30232C5.60521 5.48233 6.01769 4.74273 6.0974 4.73052C6.0974 4.72372 5.98849 4.45933 5.98849 4.45933C5.98849 4.45933 5.46736 4.54195 5.37423 5.0488C5.30996 4.94342 5.24616 4.7849 5.24616 4.7849C5.24616 4.7849 4.79247 5.37412 4.78604 5.36058C4.60616 5.24496 4.68712 4.96111 4.68712 4.96111C4.6001 4.86021 4.5816 4.741 4.56311 4.62184C4.55387 4.56229 4.54463 4.50276 4.52685 4.44553C4.28229 4.43423 4.09915 4.42303 3.91597 4.41181C3.73309 4.40062 3.55015 4.38943 3.30599 4.37813C3.30599 4.37813 3.47239 4.70319 3.47239 4.69641C3.29892 4.69984 2.4522 3.9327 2.28834 3.2796C2.71648 3.63559 3.17225 3.73364 3.65661 3.83785C3.66345 3.83932 3.6703 3.84079 3.67715 3.84227C3.6125 3.87593 3.5479 3.9097 3.48329 3.94348C3.41782 3.97771 3.35234 4.01194 3.2868 4.04606C4.63629 4.16851 6.03328 3.90345 6.02685 3.89667C5.87588 3.56336 5.38037 3.56459 5.38037 3.56459L5.35925 3.76891C5.35925 3.76891 4.74313 3.87562 4.74002 3.86905C4.67735 3.53005 4.37499 3.52399 4.37499 3.52399C4.13828 3.49173 3.93644 3.51644 3.73451 3.54116C3.63378 3.55349 3.53302 3.56582 3.4279 3.57109C3.82046 3.04971 4.33713 3.01077 4.85546 2.97171C4.94959 2.96462 5.04377 2.95752 5.13728 2.94753C5.18162 2.67361 5.40883 2.59377 5.67485 2.55455C5.67485 2.55455 6.92304 2.62194 6.92945 2.62194C7.09006 2.39744 8.03757 2.19628 8.29985 2.19628C8.25921 2.50401 7.87215 2.84161 7.72699 2.94103C7.57984 3.17703 7.59264 3.20115 7.64877 3.30682C7.65427 3.31717 7.66019 3.32831 7.6664 3.3405L7.81364 3.61168C8.0626 3.6929 8.24371 3.80483 8.29985 3.97786C8.03055 3.94369 7.83463 3.99649 7.83894 4.11995C7.84253 4.18144 7.9372 4.22 8.02386 4.2553C8.06533 4.27219 8.10496 4.28833 8.1319 4.30588C8.28653 4.45933 8.33764 4.59482 8.3451 4.7849C8.27894 4.78114 8.206 4.74374 8.13303 4.70633C7.98712 4.63152 7.84114 4.55667 7.74923 4.75082C7.68344 4.89327 7.75637 5.08572 7.92869 5.15028C8.24471 5.24197 8.27404 5.69995 8.26763 5.69995C8.26715 5.69995 8.26369 5.69835 8.25774 5.69559C8.18526 5.662 7.74253 5.45678 7.77455 5.87613C7.77272 5.90808 7.75296 5.93114 7.72962 5.95837C7.68768 6.0073 7.63419 6.06971 7.65238 6.22146C7.6876 6.51524 7.73406 6.82104 7.75536 6.8862C7.95352 6.84377 8.15179 6.80122 8.35006 6.75866C8.55318 6.71506 8.75632 6.67146 8.95936 6.62799C9.1347 6.4588 9.21377 6.17799 9.19632 5.87613C9.20053 5.78578 9.19772 5.69747 9.19495 5.60997ZM16.2584 6.31052C16.0747 6.1042 15.8864 6.03381 15.7293 6.0361C15.4996 6.0394 15.3365 6.19887 15.352 6.31945C15.4034 6.71835 16.1701 6.57997 16.2584 6.31052Z" fill="#D21034"/>
</g>
</g>
<defs>
<clipPath id="clip0_270_61006">
<rect width="20" height="15" fill="white"/>
</clipPath>
</defs>
</svg>

<svg width="20" height="15" fill="none" xmlns="http://www.w3.org/2000/svg">
  <mask id="a" maskUnits="userSpaceOnUse" x="0" y="0" width="20" height="15">
    <path fill="#fff" d="M0 0h20v15H0z"/>
  </mask>
  <g mask="url(#a)">
    <path fill-rule="evenodd" clip-rule="evenodd" d="M0 0v15h20V0H0z" fill="#5DAA22"/>
    <mask id="b" maskUnits="userSpaceOnUse" x="0" y="0" width="20" height="15">
      <path fill-rule="evenodd" clip-rule="evenodd" d="M0 0v15h20V0H0z" fill="#fff"/>
    </mask>
    <g mask="url(#b)" fill-rule="evenodd" clip-rule="evenodd">
      <path d="M0 0v7.5h20V0H0z" fill="#F7FCFF"/>
      <path d="M9.195 5.61c-.011-.348-.022-.683.41-1.083C10.735 3.53 11.882 2.75 13.164 2c-.26.46-.445 1.314.236 1.368.219.004 2.616-1.064 2.616-1.064-.834.644-1.793 1.542-.68 1.931-1.02.337-1.868 1.43-1.126 2.312-.53-.16-1.226.202-1.35.61.13 0 .36.02.642.044 1.021.09 2.719.238 2.804-.345-.55.285-1.503.169-1.532-.648.007-.7 1-1.093 1.847-.569l.129-.283.13-.287-.11.015c-.267.037-.517.072-.799.002.651-.654 1.264-1.298 1.818-2.023-.122.904 0 2.215.212 2.643a1.305 1.305 0 01-.686-.63l-.15.495-.15.495c.485 1.043-.034 2.59-.308 3.405-.085.254-.147.438-.147.513-.223.088-.386-.05-.549-.188a1.126 1.126 0 00-.252-.178c.14.385.041.995-.046 1.528-.032.2-.063.39-.08.552a.76.76 0 00.124.481c.01.018.019.032.022.041.133.055.44.204.461.225 0 0 .38.02.356.427-.186-.24-.44-.163-.44-.163-.031.022-.32-.074-.32-.074-.143-.102-.553-.188-.98-.17a3.502 3.502 0 00-.684.122c-.006 0-.352.244-.352.244s-.083-.02-.09-.02c-.014 0-.23-.003-.512.189a.735.735 0 01.378-.501c.133-.073.292-.109.391-.13.033-.008.059-.014.076-.02-.115-.04-.334-.099-.488-.084-.04.004-.094.005-.154.007-.218.005-.525.011-.606.152-.006-.165.161-.352.35-.44a.878.878 0 01.266-.067c.048-.006.08-.01.087-.021.038-.07-.089-.18-.128-.214a.087.087 0 01-.012-.01c0-.007-.236-.159-.403.013.032-.36.568-.364.621-.311l.157.162.157.162a60.982 60.982 0 01.294.198c.162.075.581.014.793-.224.124-.14.127-.402.128-.535l.001-.055.01-.149c.02-.28.055-.742-.01-.966-.029-.101-.267-.089-.574-.073-.308.016-.685.036-.988-.052-.478-.14-.96-.417-1.252-.586-.147-.085-.246-.142-.272-.14a.419.419 0 01-.1.097.605.605 0 00-.201.23c-.107.26-.087.628 0 .724 0 0 .752.006.92.1.422.232.396.58.383.758a1.261 1.261 0 00-.003.057 15.628 15.628 0 01-.626-.226l-.065-.025c-.414.706-1 1.2-1.839 1.43.093.046.278.088.428.123.11.025.201.045.226.06.249.056.424.14.422.387-.166-.197-.329-.192-.46-.095-.178.079-.304-.01-.431-.098-.064-.044-.127-.089-.197-.112-.177-.135-.881-.052-1.082-.027-.25.026-.535.094-.66.244-.063.053-.097.004-.113-.018-.004-.007-.007-.01-.008-.01-.288-.098-.416.17-.416.17-.068-.31.08-.376.236-.42l-.32-.197c-.006-.038-.22-.08-.358.054.012-.282.342-.459.48-.365a.332.332 0 01.416.026.61.61 0 00.531.089.501.501 0 00-.39-.312.346.346 0 01-.116-.078.683.683 0 00-.158-.112c-.153-.069-.346-.07-.437 0 .058-.35.711-.447.973-.04.158.17.402.258.602.291.369-.044.741-.351.977-.546.09-.074.159-.131.201-.152 0 0-.67-.685-1.178-1.038-.474-.33-1.831.31-2.015.397l-.02.01c-.033.307-.264.59-.264.59a2.558 2.558 0 00-.132-.28c-.092-.177-.178-.343-.168-.536a5.505 5.505 0 01-.607.706 7.201 7.201 0 00-.283.3c-.24.26-.363.569-.448.908.18.109.679.204.679.204.218.004.38.132.377.372-.195-.213-.39-.08-.39-.08-.16.14-.363.076-.558 0-.168-.191-.982-.25-1.37-.021-.275.265-.657.29-.762.128 0 0-.172-.006-.473.102.077-.495.365-.36.365-.36a.382.382 0 010-.06c0-.018.002-.035 0-.061l-.11-.04c-.194-.091-.434-.069-.543.026.074-.324.358-.326.57-.291a.456.456 0 00.063-.145l.02-.058-.03-.033c-.11-.119-.233-.252-.368-.133.13-.555.771-.13.994.017l.05.034c.456.161 1.64-1.686 1.698-1.814-.337-.016-.716.02-.98.118-.075.243-.208.37-.365.52l-.08.076c.005-.697-.307-1.049-.754-1.554l-.076-.085c-.559-.388-.806-1.17-.85-1.424-.087.238-.15.31-.168.331l-.006.008c-.124.143-.505.104-.42.047.054-.01.305-.407.305-.407l.109-1.063c-.066-.03-.096-.132-.135-.27a2.496 2.496 0 00-.096-.289c-.12-.282-.342-.588-.435-.614.177-.033.41-.036.557.14.128.153.214.397.281.589.039.11.071.204.103.254-.114-.389-.056-.651.057-.99v-.046c.002-.155.003-.25-.153-.347.313-.008.396.234.421.305a.09.09 0 00.008.02c.136.188.08.342.035.465-.03.082-.055.15-.016.206.023-.018.043-.045.063-.072.04-.054.079-.108.149-.097.087-.102.153-.212.147-.44.22.133.167.329.096.52.013.288-.025.367-.205.468-.18.114-.214.208-.193.346.039.044.065.136.099.255.054.189.127.445.299.68.253.348.66.667.87.831.066.052.112.089.128.106.027-.043.135-.132.237-.216.062-.051.122-.1.16-.137-.126-.105-.04-1.043.216-1.899.246-.82.659-1.56.738-1.571 0-.007-.109-.272-.109-.272s-.52.083-.614.59a2.28 2.28 0 01-.128-.264s-.454.59-.46.576c-.18-.116-.099-.4-.099-.4-.087-.1-.105-.22-.124-.34-.01-.059-.018-.118-.036-.175a37.561 37.561 0 01-.611-.034 37.846 37.846 0 00-.61-.034s.166.325.166.318C3.3 4.7 2.452 3.933 2.288 3.28c.428.356.884.454 1.369.558l.02.004a127.649 127.649 0 00-.39.204c1.35.123 2.746-.143 2.74-.15-.151-.333-.647-.331-.647-.331l-.02.204s-.617.107-.62.1c-.063-.339-.365-.345-.365-.345a2.365 2.365 0 00-.64.017c-.101.012-.202.025-.307.03.392-.521.91-.56 1.427-.6.095-.006.189-.013.282-.023.045-.274.272-.354.538-.393l1.254.067c.161-.225 1.109-.426 1.37-.426-.04.308-.427.646-.572.745-.147.236-.134.26-.078.366l.017.034.148.27c.249.082.43.194.486.367-.27-.034-.465.018-.461.142.004.061.098.1.185.135.041.017.081.033.108.05a.64.64 0 01.213.48.583.583 0 01-.212-.079c-.146-.074-.292-.15-.384.045-.066.142.007.335.18.4.316.091.345.549.339.549a.1.1 0 01-.01-.004c-.073-.034-.515-.24-.483.18-.002.032-.022.055-.045.082-.042.05-.096.112-.078.263.036.294.082.6.103.665a1185.192 1185.192 0 001.204-.258c.176-.17.255-.45.237-.752.005-.09.002-.179-.001-.266zm7.063.7c-.183-.206-.372-.276-.529-.274-.23.003-.393.163-.377.283.051.4.818.261.906-.008z" fill="#D21034"/>
    </g>
  </g>
</svg>
